community/site/assets/twitter.svg

<svg fill="none" height="130" viewBox="0 0 160 130" width="160" xmlns="http://www.w3.org/2000/svg"><path d="m69.5597 104c22.2627 0 34.4303-18.4729 34.4303-34.4876 0-.5299-.015-1.0451-.03-1.5602 2.366-1.7075 4.424-3.8418 6.04-6.2705-2.175.9715-4.497 1.6191-6.951 1.9135 2.498-1.5014 4.423-3.8712 5.32-6.712-2.337 1.3836-4.923 2.3992-7.686 2.9438-2.2038-2.3551-5.3485-3.827-8.8312-3.827-6.6862 0-12.1086 5.4315-12.1086 12.1288 0 .9568.1029 1.8694.3086 2.7672-10.0513-.5446-18.9711-5.3725-24.9519-12.7028-1.0434 1.7958-1.6459 3.8712-1.6459 6.0938 0 4.2098 2.1308 7.9191 5.3931 10.0975-1.9838-.0588-3.8501-.6035-5.4812-1.5161v.162c0 5.873 4.1733 10.7746 9.7133 11.8785-1.0139.2797-2.0867.4269-3.1888.4269-.7788 0-1.543-.0736-2.2777-.2208 1.543 4.8132 6.0102 8.3165 11.3004 8.4195-4.144 3.253-9.3607 5.1959-15.0329 5.1959-.9699 0-1.9397-.0588-2.8802-.1619 5.3636 3.4145 11.7118 5.4315 18.5597 5.4315z" fill="#1da1f2"/></svg>

<svg width="160" height="130" viewBox="0 0 160 130" fill="none" xmlns="http://www.w3.org/2000/svg">
<path d="M69.5597 104C91.8224 104 103.99 85.5271 103.99 69.5124C103.99 68.9825 103.975 68.4673 103.96 67.9522C106.326 66.2447 108.384 64.1104 110 61.6817C107.825 62.6532 105.503 63.3008 103.049 63.5952C105.547 62.0938 107.472 59.724 108.369 56.8832C106.032 58.2668 103.446 59.2824 100.683 59.827C98.4792 57.4719 95.3345 56 91.8518 56C85.1656 56 79.7432 61.4315 79.7432 68.1288C79.7432 69.0856 79.8461 69.9982 80.0518 70.896C70.0005 70.3514 61.0807 65.5235 55.0999 58.1932C54.0565 59.989 53.454 62.0644 53.454 64.287C53.454 68.4968 55.5848 72.2061 58.8471 74.3845C56.8633 74.3257 54.997 73.781 53.3659 72.8684C53.3659 72.9126 53.3659 72.9715 53.3659 73.0304C53.3659 78.9034 57.5392 83.805 63.0792 84.9089C62.0653 85.1886 60.9925 85.3358 59.8904 85.3358C59.1116 85.3358 58.3474 85.2622 57.6127 85.115C59.1557 89.9282 63.6229 93.4315 68.9131 93.5345C64.7691 96.7875 59.5524 98.7304 53.8802 98.7304C52.9103 98.7304 51.9405 98.6716 51 98.5685C56.3636 101.983 62.7118 104 69.5597 104Z" fill="#1DA1F2"/>
</svg>
